X: 3060
T: PUSH ABOUT THE JORUM
Q:"Reel."
R: Reel.
%R:reel
B: James Kerr "Merry Melodies" v.3 p.9 #60
Z: 2016 John Chambers <jc:trillian.mit.edu>
M: C
L: 1/8
K: G
ug !segno!|\
dGBG FAAc | BGBd g2(fe) |\
dGBG FAAc | BGdB G3 ::\
d |\
g2(fg) afed | ggfg a2(df) |\
g2(fg) afed |[1 egfa g3 :|\
[2 egfa gbeg !segno!|]

%%sep 1 1 500
%%sep 1 1 500

